X: 37839
T: Soondachan MacPhee
R: strathspey
M: 4/4
K: Amajor
a|A2 A>B c2 c<e|f2 f<a f>e c2|A2 A>B c2 c<e|f>ae>f e>Ac>B|
A2 A>B c2 c<e|f2 f<a f>e c2|e>fa>e f/af/ e>f|e>Ac>B A2 A:|
A|c<ee>f a2 a2|c>ee>f a>e f/e/c|c<ee>f a>Aa>f|e>fa>f e>A c/B/A|
c<ee>f a>Aa>A|c>ee>f a>e f/e/c|e>fa>e f/af/ e>f|e>Ac>B A2 A:|

